X:1
T:STAGALEE
M:4/4
L:1/8
K:Db
 D3 E F/2D/2 D3-| D2 A,B, D3 F| D2 FF D4-|
M:3/4
 D2 F/2F/2 F3|F/2-E/2 F/2 D/2- D3 F|
M:4/4
 F F2 FF A A2|A/2-d/2-A/2-B/2 FD(2F3.99999962500005/5.99999925000009F3.99999962500005/5.99999925000009D3.99999962500005/5.99999925000009 B,3.99999962500005/5.99999925000009 DD|\
 E/2D/2 E2 DD E3| D3 E F/2D/2 D3-| D2 A,B, D3 F| D2 FF D4-| D2 z4 z2|\


